packages/icons/svg/Outline/bell.svg

<svg width="24" height="24" viewBox="0 0 24 24" fill="none" xmlns="http://www.w3.org/2000/svg">
<g id="Icon/Outline/bell">
<path id="Mask" fill-rule="evenodd" clip-rule="evenodd" d="M5.5146 16L6.6946 14.818C7.0726 14.44 7.2806 13.938 7.2806 13.404V8.72702C7.2806 7.37002 7.8706 6.07302 8.9006 5.17102C9.9386 4.26102 11.2606 3.86102 12.6376 4.04202C14.9646 4.35102 16.7196 6.45502 16.7196 8.93702V13.404C16.7196 13.938 16.9276 14.44 17.3046 14.817L18.4856 16H5.5146ZM13.9996 18.341C13.9996 19.24 13.0836 20 11.9996 20C10.9156 20 9.9996 19.24 9.9996 18.341V18H13.9996V18.341ZM20.5206 15.208L18.7196 13.404V8.93702C18.7196 5.45602 16.2176 2.49902 12.8996 2.06002C10.9776 1.80402 9.0376 2.39102 7.5826 3.66702C6.1186 4.94902 5.2806 6.79302 5.2806 8.72702L5.2796 13.404L3.4786 15.208C3.0096 15.678 2.8706 16.377 3.1246 16.99C3.3796 17.604 3.9726 18 4.6366 18H7.9996V18.341C7.9996 20.359 9.7936 22 11.9996 22C14.2056 22 15.9996 20.359 15.9996 18.341V18H19.3626C20.0266 18 20.6186 17.604 20.8726 16.991C21.1276 16.377 20.9896 15.677 20.5206 15.208Z" fill="#000000"/>
</g>
</svg>

<svg fill="none" height="24" viewBox="0 0 24 24" width="24" xmlns="http://www.w3.org/2000/svg"><path clip-rule="evenodd" d="m5.51461 16.0001 1.18-1.182c.378-.378.586-.88.586-1.414v-4.67702c0-1.357.59-2.654 1.62-3.556 1.038-.91 2.35999-1.31 3.73699-1.129 2.327.309 4.082 2.413 4.082 4.895v4.46702c0 .534.208 1.036.585 1.413l1.181 1.183zm8.48499 2.3409c0 .899-.916 1.659-2 1.659s-1.99996-.76-1.99996-1.659v-.341h3.99996zm6.521-3.1329-1.801-1.804v-4.46702c0-3.481-2.502-6.438-5.82-6.877-1.922-.256-3.862.331-5.317 1.607-1.464 1.282-2.302 3.126-2.302 5.06l-.001 4.67702-1.801 1.804c-.469.47-.608 1.169-.354 1.782.255.614.848 1.01 1.512 1.01h3.363v.341c0 2.018 1.794 3.659 4 3.659s4-1.641 4-3.659v-.341h3.363c.664 0 1.256-.396 1.51-1.009.255-.614.117-1.314-.352-1.783z" fill="#6b7280" fill-rule="evenodd"/></svg>
